flaticon/gastronomy/cupcake-2.svg

<svg xmlns="http://www.w3.org/2000/svg" width="32" height="32" viewBox="0 0 24 24">
    <path d="M5.542969 4.769531C6.003906 4.769531 6.46875 4.59375 6.820312 4.242188 6.984375 4.074219 6.984375 3.804688 6.820312 3.636719 6.652344 3.472656 6.382812 3.472656 6.214844 3.636719 5.84375 4.007812 5.242188 4.007812 4.871094 3.636719 4.703125 3.472656 4.433594 3.472656 4.265625 3.636719 4.101562 3.804688 4.101562 4.074219 4.265625 4.242188 4.617188 4.59375 5.082031 4.769531 5.542969 4.769531zM7.628906 17.808594C7.53125 17.59375 7.277344 17.5 7.0625 17.601562 6.851562 17.699219 6.757812 17.957031 6.859375 18.167969L8.035156 20.6875C8.109375 20.839844 8.261719 20.929688 8.421875 20.929688 8.484375 20.929688 8.542969 20.917969 8.601562 20.890625 8.816406 20.792969 8.910156 20.539062 8.808594 20.324219zM18.425781 17.601562C18.210938 17.5 17.957031 17.59375 17.859375 17.808594L16.679688 20.324219C16.578125 20.539062 16.671875 20.792969 16.886719 20.890625 16.941406 20.917969 17.003906 20.929688 17.066406 20.929688 17.226562 20.929688 17.378906 20.839844 17.453125 20.6875L18.628906 18.167969C18.730469 17.957031 18.636719 17.699219 18.425781 17.601562zM14.773438 18.460938C14.542969 18.425781 14.324219 18.582031 14.285156 18.816406L13.894531 21.332031C13.859375 21.566406 14.015625 21.785156 14.25 21.820312 14.273438 21.824219 14.292969 21.824219 14.316406 21.824219 14.523438 21.824219 14.703125 21.675781 14.738281 21.464844L15.128906 18.945312C15.164062 18.714844 15.007812 18.496094 14.773438 18.460938zM10.714844 18.460938C10.480469 18.496094 10.324219 18.714844 10.359375 18.945312L10.75 21.464844C10.785156 21.675781 10.964844 21.824219 11.171875 21.824219 11.195312 21.824219 11.214844 21.824219 11.238281 21.820312 11.472656 21.785156 11.628906 21.566406 11.59375 21.332031L11.203125 18.816406C11.164062 18.582031 10.945312 18.425781 10.714844 18.460938zM12.746094 8.589844C14.589844 8.589844 16.347656 8.355469 17.824219 7.90625 18.050781 7.839844 18.175781 7.601562 18.109375 7.375 18.042969 7.152344 17.804688 7.023438 17.578125 7.089844 16.179688 7.515625 14.507812 7.738281 12.746094 7.738281 12.507812 7.738281 12.316406 7.929688 12.316406 8.164062 12.316406 8.398438 12.507812 8.589844 12.746094 8.589844zM4.917969 11.789062C5.34375 12.011719 5.800781 12.210938 6.273438 12.382812 6.324219 12.402344 6.371094 12.410156 6.421875 12.410156 6.59375 12.410156 6.757812 12.300781 6.820312 12.128906 6.902344 11.90625 6.789062 11.664062 6.566406 11.582031 6.128906 11.421875 5.707031 11.238281 5.3125 11.03125 5.105469 10.921875 4.847656 11.003906 4.738281 11.210938 4.628906 11.421875 4.710938 11.679688 4.917969 11.789062zM10.046875 13.253906C10.902344 13.359375 11.769531 13.410156 12.636719 13.410156 13.578125 13.410156 14.527344 13.347656 15.472656 13.226562 15.707031 13.195312 15.871094 12.980469 15.839844 12.75 15.808594 12.515625 15.597656 12.351562 15.363281 12.378906 13.613281 12.605469 11.859375 12.617188 10.148438 12.40625 9.917969 12.378906 9.703125 12.542969 9.675781 12.777344 9.644531 13.011719 9.8125 13.222656 10.046875 13.253906zM17.375 12.449219C17.425781 12.636719 17.597656 12.761719 17.785156 12.761719 17.824219 12.761719 17.863281 12.757812 17.898438 12.746094 18.84375 12.488281 19.6875 12.167969 20.410156 11.785156 20.617188 11.675781 20.695312 11.417969 20.585938 11.207031 20.476562 11 20.21875 10.921875 20.011719 11.03125 19.34375 11.382812 18.558594 11.683594 17.675781 11.925781 17.449219 11.988281 17.3125 12.21875 17.375 12.449219zM17.375 12.449219"/>
    <path d="M 23.269531 13.355469 C 23.269531 12.367188 22.734375 11.417969 21.722656 10.601562 C 21.753906 10.441406 21.769531 10.28125 21.769531 10.121094 C 21.769531 8.863281 20.894531 7.695312 19.308594 6.808594 C 19.269531 5.941406 19.007812 3.144531 17.21875 1.515625 C 16.210938 0.597656 14.898438 0.210938 13.316406 0.367188 C 13.171875 0.382812 13.042969 0.46875 12.976562 0.601562 C 12.914062 0.734375 12.921875 0.890625 12.996094 1.015625 C 13.265625 1.453125 13.738281 2.511719 13.480469 2.984375 C 13.367188 3.1875 13.082031 3.292969 12.636719 3.296875 C 11.535156 3.308594 10.460938 3.445312 9.496094 3.6875 C 9.367188 3.503906 9.222656 3.328125 9.0625 3.164062 C 8.039062 2.144531 6.6875 1.683594 5.460938 1.8125 C 5.273438 1.460938 5 1.082031 4.59375 0.761719 C 3.738281 0.0859375 2.558594 -0.140625 1.09375 0.0859375 C 0.859375 0.121094 0.699219 0.339844 0.734375 0.570312 C 0.769531 0.804688 0.992188 0.964844 1.222656 0.929688 C 2.441406 0.742188 3.394531 0.910156 4.058594 1.425781 C 4.285156 1.605469 4.457031 1.808594 4.589844 2.015625 C 4.144531 2.179688 3.738281 2.429688 3.390625 2.777344 L 3 3.164062 C 1.542969 4.621094 1.71875 7.164062 3.390625 8.835938 C 3.492188 8.9375 3.597656 9.03125 3.710938 9.121094 C 3.578125 9.453125 3.511719 9.789062 3.511719 10.121094 C 3.511719 10.28125 3.527344 10.441406 3.554688 10.601562 C 2.542969 11.417969 2.007812 12.367188 2.007812 13.355469 C 2.007812 14.074219 2.289062 14.765625 2.835938 15.410156 L 4.445312 19.375 L 4.464844 19.417969 C 5.824219 21.914062 6.96875 22.550781 9.449219 23.503906 C 10.3125 23.832031 11.53125 24 12.75 24 C 13.964844 24 15.179688 23.832031 16.039062 23.5 C 18.523438 22.542969 19.667969 21.90625 21 19.460938 L 23.066406 14.386719 C 23.199219 14.046875 23.269531 13.699219 23.269531 13.355469 Z M 3.605469 3.769531 L 3.992188 3.378906 C 4.261719 3.109375 4.585938 2.921875 4.933594 2.800781 C 4.980469 2.972656 4.996094 3.09375 4.996094 3.101562 C 5.015625 3.324219 5.203125 3.492188 5.421875 3.492188 C 5.433594 3.492188 5.445312 3.488281 5.457031 3.488281 C 5.691406 3.46875 5.867188 3.261719 5.847656 3.027344 C 5.84375 3.011719 5.832031 2.863281 5.777344 2.648438 C 5.808594 2.644531 5.839844 2.636719 5.871094 2.636719 C 6.761719 2.636719 7.710938 3.023438 8.457031 3.769531 C 8.644531 3.957031 8.800781 4.164062 8.933594 4.382812 C 8.933594 4.386719 8.933594 4.386719 8.9375 4.390625 C 9.207031 4.84375 9.351562 5.34375 9.375 5.847656 C 9.375 5.867188 9.378906 5.886719 9.378906 5.910156 C 9.382812 6.066406 9.375 6.21875 9.359375 6.375 C 9.355469 6.390625 9.351562 6.410156 9.351562 6.425781 C 9.308594 6.742188 9.21875 7.054688 9.078125 7.347656 C 9.070312 7.363281 9.0625 7.378906 9.054688 7.398438 C 8.984375 7.539062 8.90625 7.671875 8.816406 7.804688 C 8.800781 7.820312 8.789062 7.839844 8.773438 7.859375 C 8.679688 7.988281 8.574219 8.113281 8.457031 8.234375 C 8.332031 8.359375 8.195312 8.46875 8.054688 8.570312 C 8.042969 8.578125 8.03125 8.585938 8.023438 8.59375 C 7.878906 8.691406 7.730469 8.777344 7.578125 8.851562 C 7.566406 8.855469 7.5625 8.859375 7.550781 8.863281 C 7.074219 9.082031 6.550781 9.179688 6.027344 9.148438 C 6.015625 9.148438 6.003906 9.148438 5.992188 9.144531 C 5.824219 9.132812 5.660156 9.109375 5.5 9.070312 C 5.484375 9.066406 5.46875 9.0625 5.453125 9.058594 C 5.289062 9.019531 5.128906 8.964844 4.96875 8.898438 C 4.964844 8.894531 4.957031 8.890625 4.949219 8.886719 C 4.789062 8.816406 4.628906 8.730469 4.476562 8.628906 C 4.476562 8.628906 4.476562 8.628906 4.472656 8.628906 C 4.304688 8.511719 4.140625 8.382812 3.992188 8.230469 C 2.65625 6.894531 2.480469 4.890625 3.605469 3.769531 Z M 4.285156 11.113281 C 4.429688 11.007812 4.492188 10.820312 4.441406 10.648438 C 4.390625 10.472656 4.363281 10.292969 4.363281 10.121094 C 4.363281 9.949219 4.390625 9.773438 4.445312 9.59375 C 4.476562 9.609375 4.507812 9.621094 4.539062 9.636719 C 4.765625 9.742188 5.003906 9.824219 5.246094 9.886719 C 5.28125 9.894531 5.320312 9.90625 5.355469 9.914062 C 5.425781 9.929688 5.5 9.941406 5.570312 9.953125 C 5.613281 9.960938 5.65625 9.964844 5.699219 9.972656 C 5.769531 9.980469 5.84375 9.988281 5.914062 9.996094 C 5.957031 10 5.996094 10 6.035156 10 C 6.097656 10.003906 6.164062 10.011719 6.226562 10.011719 C 6.429688 10.011719 6.632812 9.992188 6.832031 9.960938 C 6.847656 9.957031 6.863281 9.957031 6.882812 9.953125 C 6.972656 9.9375 7.066406 9.917969 7.15625 9.898438 C 7.164062 9.894531 7.171875 9.894531 7.183594 9.890625 C 7.472656 9.820312 7.757812 9.71875 8.023438 9.582031 C 8.027344 9.582031 8.035156 9.578125 8.039062 9.574219 C 8.109375 9.539062 8.175781 9.5 8.246094 9.460938 C 8.285156 9.4375 8.320312 9.417969 8.359375 9.394531 C 8.414062 9.359375 8.464844 9.324219 8.519531 9.285156 C 8.574219 9.25 8.625 9.210938 8.679688 9.167969 C 8.71875 9.140625 8.757812 9.109375 8.792969 9.078125 C 8.886719 9 8.976562 8.921875 9.0625 8.835938 C 9.191406 8.707031 9.308594 8.566406 9.417969 8.417969 C 9.441406 8.390625 9.464844 8.359375 9.484375 8.328125 C 9.699219 8.03125 9.867188 7.710938 9.992188 7.371094 C 10 7.34375 10.011719 7.320312 10.019531 7.292969 C 10.132812 6.957031 10.203125 6.605469 10.222656 6.246094 C 10.226562 6.207031 10.226562 6.167969 10.230469 6.132812 C 10.230469 6.085938 10.234375 6.042969 10.234375 6 C 10.234375 5.671875 10.191406 5.351562 10.113281 5.039062 C 10.113281 5.027344 10.109375 5.015625 10.105469 5.003906 C 10.058594 4.816406 10 4.632812 9.925781 4.453125 C 10.769531 4.265625 11.695312 4.160156 12.644531 4.148438 C 13.421875 4.140625 13.953125 3.886719 14.226562 3.394531 C 14.597656 2.71875 14.316406 1.796875 14.046875 1.1875 C 15.085938 1.199219 15.957031 1.519531 16.640625 2.144531 C 18.453125 3.789062 18.460938 7.03125 18.460938 7.0625 C 18.460938 7.222656 18.546875 7.371094 18.691406 7.445312 C 20.125 8.191406 20.914062 9.140625 20.914062 10.117188 C 20.914062 10.292969 20.890625 10.472656 20.835938 10.648438 C 20.785156 10.820312 20.847656 11.003906 20.992188 11.113281 C 21.640625 11.59375 22.417969 12.371094 22.417969 13.355469 C 22.417969 13.507812 22.398438 13.667969 22.355469 13.824219 C 22.347656 13.820312 22.339844 13.820312 22.332031 13.816406 C 22.21875 13.765625 22.105469 13.722656 21.988281 13.695312 C 21.972656 13.691406 21.957031 13.691406 21.945312 13.6875 C 21.828125 13.664062 21.707031 13.648438 21.582031 13.644531 C 21.570312 13.644531 21.5625 13.644531 21.550781 13.644531 C 21.425781 13.644531 21.292969 13.65625 21.160156 13.679688 C 21.136719 13.683594 21.109375 13.6875 21.082031 13.691406 C 20.953125 13.714844 20.816406 13.75 20.679688 13.796875 C 20.65625 13.804688 20.628906 13.816406 20.605469 13.824219 C 20.46875 13.875 20.332031 13.929688 20.191406 14 C 20.179688 14.003906 20.171875 14.007812 20.160156 14.015625 C 20.015625 14.085938 19.867188 14.175781 19.714844 14.269531 C 19.6875 14.289062 19.65625 14.304688 19.625 14.324219 C 19.476562 14.421875 19.328125 14.527344 19.179688 14.644531 C 19.152344 14.664062 19.121094 14.691406 19.09375 14.710938 C 18.933594 14.839844 18.777344 14.972656 18.617188 15.117188 C 17.480469 14.347656 15.902344 14.859375 14.71875 15.878906 C 13.578125 15.003906 11.96875 15.003906 10.828125 15.882812 C 10.738281 15.804688 10.644531 15.730469 10.550781 15.660156 C 10.523438 15.640625 10.496094 15.621094 10.46875 15.601562 C 10.398438 15.550781 10.328125 15.5 10.257812 15.453125 C 10.226562 15.433594 10.199219 15.414062 10.167969 15.398438 C 10.070312 15.335938 9.972656 15.277344 9.875 15.222656 C 9.875 15.222656 9.871094 15.222656 9.871094 15.222656 C 9.773438 15.167969 9.667969 15.121094 9.566406 15.074219 C 9.539062 15.0625 9.507812 15.050781 9.480469 15.039062 C 9.402344 15.003906 9.324219 14.976562 9.246094 14.949219 C 9.214844 14.9375 9.1875 14.925781 9.15625 14.917969 C 9.054688 14.882812 8.949219 14.851562 8.847656 14.828125 C 8.742188 14.804688 8.636719 14.785156 8.535156 14.773438 C 8.503906 14.769531 8.476562 14.765625 8.449219 14.765625 C 8.371094 14.757812 8.292969 14.753906 8.214844 14.75 C 8.199219 14.75 8.179688 14.746094 8.160156 14.746094 C 8.152344 14.746094 8.140625 14.75 8.128906 14.75 C 7.925781 14.75 7.726562 14.777344 7.53125 14.832031 C 7.503906 14.835938 7.480469 14.847656 7.453125 14.855469 C 7.382812 14.878906 7.308594 14.902344 7.238281 14.933594 C 7.214844 14.945312 7.1875 14.957031 7.160156 14.96875 C 7.070312 15.015625 6.980469 15.0625 6.894531 15.121094 C 6.792969 15.027344 6.691406 14.941406 6.59375 14.855469 C 6.558594 14.828125 6.527344 14.804688 6.496094 14.777344 C 6.429688 14.722656 6.359375 14.667969 6.292969 14.617188 C 6.253906 14.589844 6.21875 14.5625 6.179688 14.535156 C 6.121094 14.492188 6.058594 14.445312 5.996094 14.402344 C 5.957031 14.378906 5.917969 14.351562 5.878906 14.328125 C 5.820312 14.289062 5.761719 14.25 5.703125 14.214844 C 5.664062 14.191406 5.625 14.167969 5.585938 14.148438 C 5.53125 14.113281 5.472656 14.082031 5.414062 14.054688 C 5.378906 14.035156 5.339844 14.015625 5.300781 13.996094 C 5.242188 13.96875 5.1875 13.941406 5.128906 13.917969 C 5.09375 13.902344 5.058594 13.886719 5.023438 13.871094 C 4.960938 13.847656 4.902344 13.828125 4.847656 13.808594 C 4.8125 13.796875 4.78125 13.785156 4.75 13.773438 C 4.683594 13.753906 4.617188 13.734375 4.550781 13.71875 C 4.527344 13.714844 4.507812 13.707031 4.484375 13.703125 C 4.398438 13.683594 4.3125 13.667969 4.226562 13.660156 C 4.210938 13.65625 4.195312 13.65625 4.175781 13.65625 C 4.109375 13.648438 4.042969 13.644531 3.980469 13.644531 C 3.949219 13.644531 3.921875 13.648438 3.890625 13.648438 C 3.839844 13.648438 3.789062 13.652344 3.738281 13.65625 C 3.707031 13.660156 3.675781 13.664062 3.644531 13.667969 C 3.597656 13.675781 3.550781 13.683594 3.507812 13.695312 C 3.476562 13.703125 3.445312 13.710938 3.414062 13.71875 C 3.371094 13.730469 3.328125 13.746094 3.285156 13.761719 C 3.253906 13.773438 3.226562 13.785156 3.199219 13.796875 C 3.15625 13.816406 3.113281 13.835938 3.070312 13.859375 C 3.042969 13.871094 3.019531 13.886719 2.992188 13.902344 C 2.976562 13.910156 2.964844 13.917969 2.949219 13.925781 C 2.890625 13.738281 2.863281 13.546875 2.863281 13.355469 C 2.863281 12.371094 3.636719 11.59375 4.285156 11.113281 Z M 20.238281 19.074219 C 19.039062 21.273438 18.097656 21.792969 15.734375 22.707031 C 14.230469 23.285156 11.269531 23.289062 9.753906 22.707031 C 7.394531 21.800781 6.453125 21.28125 5.226562 19.035156 L 3.605469 15.035156 C 3.605469 15.035156 3.605469 15.03125 3.601562 15.03125 L 3.4375 14.628906 C 4.492188 14.035156 6.214844 15.644531 6.570312 15.992188 L 6.871094 16.289062 L 7.171875 15.992188 C 8.113281 15.0625 9.691406 15.941406 10.519531 16.757812 L 10.820312 17.054688 L 11.121094 16.757812 C 12.03125 15.851562 13.515625 15.851562 14.425781 16.757812 L 14.726562 17.054688 L 15.027344 16.757812 C 15.785156 16.003906 17.175781 15.199219 18.117188 15.816406 C 18.191406 15.867188 18.265625 15.921875 18.335938 15.992188 L 18.636719 16.289062 L 18.9375 15.992188 C 18.984375 15.945312 19.054688 15.878906 19.144531 15.796875 C 19.152344 15.789062 19.160156 15.78125 19.167969 15.773438 C 19.203125 15.742188 19.242188 15.707031 19.285156 15.671875 C 19.304688 15.652344 19.324219 15.636719 19.34375 15.617188 C 19.378906 15.589844 19.410156 15.558594 19.449219 15.527344 C 19.476562 15.507812 19.503906 15.484375 19.53125 15.460938 C 19.566406 15.433594 19.597656 15.40625 19.632812 15.378906 C 19.667969 15.351562 19.703125 15.324219 19.734375 15.300781 C 19.769531 15.273438 19.804688 15.25 19.839844 15.222656 C 19.875 15.195312 19.914062 15.167969 19.953125 15.140625 C 19.988281 15.117188 20.023438 15.09375 20.058594 15.070312 C 20.097656 15.042969 20.136719 15.019531 20.179688 14.992188 C 20.214844 14.96875 20.25 14.945312 20.289062 14.925781 C 20.332031 14.898438 20.375 14.875 20.417969 14.851562 C 20.453125 14.832031 20.492188 14.8125 20.527344 14.792969 C 20.570312 14.769531 20.613281 14.746094 20.65625 14.726562 C 20.695312 14.710938 20.734375 14.691406 20.773438 14.675781 C 20.816406 14.660156 20.859375 14.640625 20.902344 14.625 C 20.941406 14.609375 20.984375 14.597656 21.023438 14.585938 C 21.0625 14.574219 21.105469 14.558594 21.144531 14.550781 C 21.1875 14.539062 21.230469 14.53125 21.277344 14.523438 C 21.3125 14.519531 21.347656 14.511719 21.386719 14.507812 C 21.4375 14.503906 21.484375 14.503906 21.535156 14.503906 C 21.5625 14.503906 21.589844 14.5 21.617188 14.503906 C 21.769531 14.515625 21.914062 14.554688 22.046875 14.632812 Z M 20.238281 19.074219"/>
</svg>

<svg xmlns="http://www.w3.org/2000/svg" width="32" height="32" viewBox="0 0 24 24">
    <path d="M5.543 4.77c.46 0 .926-.176 1.277-.528a.434.434 0 0 0 0-.605.434.434 0 0 0-.605 0 .95.95 0 0 1-1.344 0 .434.434 0 0 0-.605 0 .434.434 0 0 0 0 .605c.351.352.816.528 1.277.528zm0 0M7.629 17.809a.425.425 0 0 0-.77.36l1.176 2.518a.43.43 0 0 0 .567.204.423.423 0 0 0 .207-.567zm0 0M18.426 17.602a.423.423 0 0 0-.567.207l-1.18 2.515a.423.423 0 0 0 .387.606.43.43 0 0 0 .387-.242l1.176-2.52a.425.425 0 0 0-.203-.566zm0 0M14.773 18.46a.43.43 0 0 0-.488.356l-.39 2.516a.426.426 0 0 0 .355.488.427.427 0 0 0 .488-.355l.39-2.52a.424.424 0 0 0-.355-.484zm0 0M10.715 18.46a.424.424 0 0 0-.356.485l.391 2.52c.035.21.215.36.422.36.023 0 .043 0 .066-.005a.426.426 0 0 0 .356-.488l-.39-2.516a.43.43 0 0 0-.49-.355zm0 0M12.746 8.59c1.844 0 3.602-.235 5.078-.684a.426.426 0 1 0-.246-.816c-1.398.426-3.07.648-4.832.648a.428.428 0 0 0-.43.426c0 .234.192.426.43.426zm0 0M4.918 11.79c.426.222.883.42 1.355.593a.428.428 0 0 0 .293-.8c-.437-.161-.859-.345-1.253-.552a.427.427 0 0 0-.395.758zm0 0M10.047 13.254c.855.105 1.723.156 2.59.156.941 0 1.89-.062 2.836-.183a.426.426 0 0 0 .367-.477.43.43 0 0 0-.477-.371c-1.75.226-3.504.238-5.215.027a.426.426 0 1 0-.102.848zm0 0M17.375 12.45a.426.426 0 0 0 .523.296c.946-.258 1.79-.578 2.512-.96a.429.429 0 0 0 .176-.579.425.425 0 0 0-.574-.176 11.66 11.66 0 0 1-2.336.895.426.426 0 0 0-.301.523zm0 0"/>
    <path d="M23.27 13.355c0-.988-.536-1.937-1.547-2.753.03-.16.047-.32.047-.48 0-1.259-.875-2.427-2.461-3.313-.04-.868-.301-3.664-2.09-5.293C16.21.598 14.899.21 13.316.367a.43.43 0 0 0-.34.235.444.444 0 0 0 .02.414c.27.437.742 1.496.484 1.968-.113.204-.398.309-.843.313a13.632 13.632 0 0 0-3.14.39 4.223 4.223 0 0 0-.434-.523c-1.024-1.02-2.376-1.48-3.602-1.352a3.303 3.303 0 0 0-.867-1.05c-.856-.676-2.035-.903-3.5-.676a.427.427 0 1 0 .129.844C2.44.742 3.395.91 4.059 1.426a2.4 2.4 0 0 1 .53.59 3.284 3.284 0 0 0-1.198.761L3 3.164c-1.457 1.457-1.281 4 .39 5.672.102.101.208.195.32.285a2.684 2.684 0 0 0-.155 1.48c-1.012.817-1.547 1.766-1.547 2.754 0 .72.281 1.41.828 2.055l1.61 3.965.019.043c1.36 2.496 2.504 3.133 4.984 4.086.864.328 2.082.496 3.301.496 1.215 0 2.43-.168 3.29-.5 2.483-.957 3.628-1.594 4.96-4.04l2.066-5.073c.133-.34.204-.688.204-1.032zM3.605 3.77l.387-.391c.27-.27.594-.457.942-.578.046.172.062.293.062.3.02.223.207.391.426.391.012 0 .023-.004.035-.004a.428.428 0 0 0 .39-.46c-.003-.016-.015-.165-.07-.38.032-.003.063-.011.094-.011.89 0 1.84.386 2.586 1.133a3.236 3.236 0 0 1 .48.62c.27.454.415.954.438 1.458 0 .02.004.039.004.062.004.156-.004.309-.02.465a3.092 3.092 0 0 1-.305 1.023c-.07.141-.148.274-.238.407-.015.015-.027.035-.043.054a3.5 3.5 0 0 1-.316.375 3.275 3.275 0 0 1-.879.618c-.012.003-.016.007-.027.011-.477.219-1 .317-1.524.285-.011 0-.023 0-.035-.003A2.933 2.933 0 0 1 5.5 9.07l-.047-.011a3.196 3.196 0 0 1-.484-.16c-.004-.004-.012-.008-.02-.012-.16-.07-.32-.157-.472-.258h-.004a3.293 3.293 0 0 1-.48-.399C2.655 6.895 2.48 4.89 3.604 3.77zm.68 7.343a.427.427 0 0 0 .156-.465 1.916 1.916 0 0 1-.078-.527c0-.172.028-.348.082-.527.032.015.063.027.094.043.227.105.465.187.707.25.035.008.074.02.11.027.07.016.144.027.214.04.043.007.086.01.13.019l.214.023c.043.004.082.004.121.004.063.004.13.012.192.012.203 0 .406-.02.605-.051.016-.004.031-.004.05-.008.09-.015.184-.035.274-.055l.028-.007a3.803 3.803 0 0 0 .855-.317c.07-.035.137-.074.207-.113l.113-.066c.055-.036.106-.07.16-.11.055-.035.106-.074.16-.117a3.97 3.97 0 0 0 .383-.332 3.65 3.65 0 0 0 .356-.418 3.95 3.95 0 0 0 .574-1.047c.008-.027.02-.05.028-.078.113-.336.183-.688.203-1.047.004-.039.004-.078.007-.113 0-.047.004-.09.004-.133a3.95 3.95 0 0 0-.12-.96c0-.013-.005-.024-.009-.036a3.942 3.942 0 0 0-.18-.55 13.41 13.41 0 0 1 2.72-.306c.777-.007 1.308-.261 1.582-.753.37-.676.09-1.598-.18-2.208 1.039.012 1.91.333 2.594.958 1.812 1.644 1.82 4.886 1.82 4.917 0 .16.086.31.23.383 1.434.746 2.223 1.696 2.223 2.672 0 .176-.023.356-.078.531a.43.43 0 0 0 .156.465c.649.48 1.426 1.258 1.426 2.242 0 .153-.02.313-.063.47-.007-.005-.015-.005-.023-.009a1.896 1.896 0 0 0-.344-.12c-.015-.005-.031-.005-.043-.008a2.2 2.2 0 0 0-.363-.043h-.031c-.125 0-.258.011-.39.035l-.079.011a2.79 2.79 0 0 0-.402.106c-.024.008-.051.02-.075.027a4.101 4.101 0 0 0-.445.192 5.31 5.31 0 0 0-.445.254c-.027.02-.059.035-.09.054a6.327 6.327 0 0 0-.445.32c-.028.02-.059.047-.086.067-.16.129-.317.262-.477.406-1.137-.77-2.715-.258-3.898.762a3.206 3.206 0 0 0-3.89.004 4.941 4.941 0 0 0-.278-.223l-.082-.058c-.07-.051-.14-.102-.211-.149-.031-.02-.059-.039-.09-.055a5.81 5.81 0 0 0-.293-.175h-.004c-.098-.055-.203-.102-.305-.149l-.086-.035a2.88 2.88 0 0 0-.234-.09c-.031-.011-.059-.023-.09-.031a3.062 3.062 0 0 0-.62-.145c-.032-.003-.06-.007-.087-.007-.078-.008-.156-.012-.234-.016-.016 0-.035-.004-.055-.004-.008 0-.02.004-.031.004-.203 0-.402.027-.598.082-.027.004-.05.016-.078.023-.07.024-.144.047-.215.079l-.078.035c-.09.047-.18.094-.265.152-.102-.094-.204-.18-.301-.266-.035-.027-.067-.05-.098-.078a7.27 7.27 0 0 0-.203-.16c-.04-.027-.074-.055-.113-.082-.059-.043-.121-.09-.184-.133-.039-.023-.078-.05-.117-.074a4.44 4.44 0 0 0-.578-.332c-.059-.027-.114-.055-.172-.078l-.106-.047-.175-.062-.098-.036a3.776 3.776 0 0 0-.2-.054c-.023-.004-.042-.012-.066-.016a1.972 1.972 0 0 0-.257-.043c-.016-.004-.032-.004-.051-.004a1.688 1.688 0 0 0-.196-.011c-.03 0-.058.003-.09.003-.05 0-.1.004-.152.008l-.093.012a1.41 1.41 0 0 0-.137.027l-.094.024a1.662 1.662 0 0 0-.344.14c-.027.012-.05.028-.078.043l-.043.024a1.906 1.906 0 0 1-.086-.57c0-.985.774-1.762 1.422-2.243zm15.953 7.961c-1.199 2.2-2.14 2.719-4.504 3.633-1.504.578-4.464.582-5.98 0-2.36-.906-3.3-1.426-4.527-3.672l-1.622-4s0-.004-.003-.004l-.164-.402c1.054-.594 2.777 1.016 3.132 1.363l.301.297.3-.297c.942-.93 2.52-.05 3.349.766l.3.297.301-.297a2.348 2.348 0 0 1 3.305 0l.3.297.301-.297c.758-.754 2.149-1.559 3.09-.942.074.051.149.106.219.176l.3.297.302-.297a6.753 6.753 0 0 1 .23-.219c.035-.03.074-.066.117-.101.02-.02.04-.035.059-.055.035-.027.066-.058.105-.09.028-.02.055-.043.082-.066l.102-.082.101-.078c.036-.028.07-.051.106-.078.035-.028.074-.055.113-.082l.106-.07c.039-.028.078-.051.12-.079.036-.023.071-.047.11-.066.043-.028.086-.051.129-.074.035-.02.074-.04.11-.059.042-.023.085-.047.128-.066.04-.016.078-.036.117-.051.043-.016.086-.035.13-.051.038-.016.081-.027.12-.04.04-.01.082-.026.122-.034.043-.012.085-.02.132-.028.035-.003.07-.011.11-.015.05-.004.097-.004.148-.004.027 0 .055-.004.082 0 .153.012.297.05.43.129zm0 0"/>
</svg>
